; generated by Slic3r 1.34.0-prusa3d on 2017-06-10 at 07:46:51

; external perimeters extrusion width = 0.40mm
; perimeters extrusion width = 0.68mm
; infill extrusion width = 1.28mm
; solid infill extrusion width = 0.68mm
; top infill extrusion width = 0.68mm
; support material extrusion width = 0.40mm

M107
G92 E0
M109 S160 ; wait for extruder temp to be reached
M190 S65 ; set and wait for bed temp to be reached
G28 ; home all
G29 ; auto z
G1 Z15 F5000 ; lift nozzle
M109 S210 ; wait for extruder temp to be reached
; M900 K75 ; LIN_ADVANCE K PLA
M900 K35 ; LIN_ADVANCE K ABS
G21 ; set units to millimeters
G90 ; use absolute coordinates
M82 ; use absolute distances for extrusion
G92 E0
G1 E-1.50000 F4800.00000
G92 E0
G1 Z0.300 F12000.000
G1 X83.679 Y72.090 F12000.000
G1 E1.50000 F4800.00000
G1 F2100
G1 X85.111 Y71.610 E1.60692
G1 X86.292 Y71.468 E1.69115
G1 X113.620 Y71.467 E3.62577
G1 X114.559 Y71.543 E3.69248
G1 X115.547 Y71.786 E3.76448
G1 X116.362 Y72.110 E3.82658
G1 X117.243 Y72.630 E3.89900
G1 X122.959 Y77.433 E4.42757
G1 X123.861 Y78.353 E4.51875
G1 X136.255 Y94.942 E5.98469
G1 X136.792 Y96.228 E6.08341
G1 X137.015 Y97.608 E6.18231
G1 X136.981 Y98.828 E6.26873
G1 X136.647 Y100.233 E6.37097
G1 X132.791 Y108.675 E7.02803
G1 X132.168 Y109.725 E7.11444
G1 X131.614 Y110.387 E7.17554
G1 X131.048 Y110.889 E7.22915
G1 X109.343 Y127.318 E9.15622
G1 X107.331 Y128.320 E9.31533
G1 X106.661 Y128.521 E9.36483
G1 X105.963 Y128.618 E9.41471
G1 X94.225 Y128.625 E10.24568
G1 X93.467 Y128.547 E10.29967
G1 X92.731 Y128.344 E10.35367
G1 X91.018 Y127.527 E10.48803
G1 X90.364 Y127.114 E10.54278
G1 X68.947 Y110.885 E12.44513
G1 X68.216 Y110.209 E12.51560
G1 X67.769 Y109.630 E12.56735
G1 X67.187 Y108.629 E12.64933
G1 X63.319 Y100.138 E13.30992
G1 X63.031 Y98.908 E13.39931
G1 X62.973 Y97.953 E13.46703
G1 X63.095 Y96.730 E13.55403
G1 X63.315 Y95.899 E13.61494
G1 X63.620 Y95.171 E13.67082
G1 X64.016 Y94.527 E13.72431
G1 X76.234 Y78.238 E15.16580
G1 X77.038 Y77.435 E15.24627
G1 X82.285 Y72.987 E15.73317
G1 X83.628 Y72.123 E15.84628
G1 F9600
G1 X85.111 Y71.610 E15.10124
G1 F9600
G1 X86.292 Y71.468 E14.53606
G1 F9600
G1 X86.534 Y71.468 E14.42128
G1 E14.34628 F4800.00000
G92 E0
G1 X83.916 Y72.571 F12000.000
G1 E1.50000 F4800.00000
G1 F2100
G1 X85.238 Y72.130 E1.59864
G1 X86.309 Y72.004 E1.67500
G1 X113.619 Y72.003 E3.60836
G1 X114.480 Y72.073 E3.66947
G1 X115.397 Y72.300 E3.73639
G1 X116.138 Y72.597 E3.79286
G1 X116.966 Y73.089 E3.86103
G1 X122.607 Y77.837 E4.38301
G1 X123.440 Y78.684 E4.46716
G1 X135.776 Y95.183 E5.92553
G1 X136.275 Y96.367 E6.01645
G1 X136.480 Y97.646 E6.10819
G1 X136.450 Y98.756 E6.18678
G1 X136.140 Y100.060 E6.28165
G1 X132.321 Y108.416 E6.93208
G1 X131.736 Y109.407 E7.01355
G1 X131.236 Y110.008 E7.06887
G1 X130.724 Y110.463 E7.11736
G1 X109.056 Y126.866 E9.04125
G1 X107.155 Y127.814 E9.19164
G1 X105.923 Y128.084 E9.28091
G1 X94.246 Y128.090 E10.10760
G1 X93.563 Y128.020 E10.15624
G1 X92.905 Y127.837 E10.20453
G1 X91.266 Y127.052 E10.33318
G1 X90.678 Y126.681 E10.38242
G1 X69.275 Y110.462 E12.28353
G1 X68.627 Y109.865 E12.34589
G1 X68.218 Y109.338 E12.39312
G1 X67.668 Y108.394 E12.47046
G1 X63.832 Y99.983 E13.12492
G1 X63.573 Y98.903 E13.20351
G1 X63.509 Y98.173 E13.25541
G1 X63.612 Y96.891 E13.34647
G1 X63.822 Y96.072 E13.40630
G1 X64.095 Y95.418 E13.45646
G1 X64.448 Y94.844 E13.50419
G1 X76.642 Y78.585 E14.94295
G1 X77.389 Y77.840 E15.01767
G1 X82.625 Y73.401 E15.50354
G1 X83.866 Y72.603 E15.60801
G1 F9600
G1 X85.238 Y72.130 E14.91853
G1 F9600
G1 X86.309 Y72.004 E14.40614
G1 F9600
G1 X86.779 Y72.004 E14.18301
G1 E14.10801 F4800.00000
G92 E0
G1 X84.154 Y73.051 F12000.000
G1 E1.50000 F4800.00000
G1 F2100
G1 X85.365 Y72.650 E1.59035
G1 X86.322 Y72.539 E1.65851
G1 X113.619 Y72.539 E3.59097
G1 X114.396 Y72.602 E3.64619
G1 X115.242 Y72.813 E3.70788
G1 X115.919 Y73.087 E3.75960
G1 X116.682 Y73.544 E3.82255
G1 X122.255 Y78.240 E4.33849
G1 X123.018 Y79.014 E4.41541
G1 X135.294 Y95.422 E5.86609
G1 X135.758 Y96.508 E5.94968
G1 X135.946 Y97.681 E6.03384
G1 X135.919 Y98.685 E6.10492
G1 X135.635 Y99.883 E6.19207
G1 X131.844 Y108.173 E6.83740
G1 X131.298 Y109.099 E6.91352
G1 X130.856 Y109.631 E6.96245
G1 X108.776 Y126.409 E8.92560
G1 X106.977 Y127.308 E9.06804
G1 X105.888 Y127.549 E9.14696
G1 X94.260 Y127.555 E9.97013
G1 X93.660 Y127.493 E10.01283
G1 X93.080 Y127.330 E10.05553
G1 X91.514 Y126.577 E10.17854
G1 X90.997 Y126.250 E10.22186
G1 X69.599 Y110.035 E12.12247
G1 X69.035 Y109.518 E12.17664
G1 X68.667 Y109.046 E12.21901
G1 X68.149 Y108.158 E12.29177
G1 X64.344 Y99.824 E12.94034
G1 X64.103 Y98.822 E13.01329
G1 X64.044 Y98.177 E13.05916
G1 X64.140 Y96.976 E13.14444
G1 X64.327 Y96.249 E13.19758
G1 X64.884 Y95.155 E13.28446
G1 X77.048 Y78.935 E14.71979
G1 X77.741 Y78.244 E14.78906
G1 X82.965 Y73.815 E15.27389
G1 X84.103 Y73.084 E15.36968
G1 F9600
G1 X85.365 Y72.650 E14.73578
G1 F9600
G1 X86.322 Y72.539 E14.27848
G1 F9600
G1 X87.024 Y72.539 E13.94468
G1 E13.86968 F4800.00000
G92 E0
G1 X82.399 Y100.574 F12000.000
G1 E1.50000 F4800.00000
G1 F2100
G1 X82.394 Y99.956 E1.54370
G1 X82.453 Y99.238 E1.59473
G1 X82.521 Y98.880 E1.62051
G1 X82.653 Y98.602 E1.64230
G1 X82.757 Y98.505 E1.65237
G1 X83.234 Y98.299 E1.68918
G1 X83.675 Y98.266 E1.72051
G1 X83.983 Y98.415 E1.74471
G1 X84.182 Y98.623 E1.76505
G1 X84.341 Y98.890 E1.78705
G1 X84.427 Y99.216 E1.81092
G1 X84.378 Y99.448 E1.82773
G1 X84.249 Y99.683 E1.84673
G1 X84.184 Y99.846 E1.85917
G1 X83.898 Y100.057 E1.88432
G1 X83.578 Y100.368 E1.91587
G1 X83.385 Y100.664 E1.94093
G1 X83.154 Y101.147 E1.97879
G1 X83.150 Y101.479 E2.00234
G1 X83.115 Y101.729 E2.02019
G1 X83.316 Y102.075 E2.04852
G1 X83.372 Y102.266 E2.06265
G1 X83.679 Y102.428 E2.08722
G1 X84.177 Y102.306 E2.12350
G1 X84.367 Y102.221 E2.13824
G1 X84.523 Y102.024 E2.15600
G1 X84.757 Y101.820 E2.17796
G1 X85.030 Y101.308 E2.21907
G1 X85.053 Y101.202 E2.22672
G1 X85.204 Y100.921 E2.24929
G1 X85.317 Y100.817 E2.26017
G1 X85.514 Y100.683 E2.27705
G1 X85.593 Y100.672 E2.28269
G1 X85.884 Y100.692 E2.30334
G1 X86.101 Y100.726 E2.31891
G1 X86.428 Y100.878 E2.34440
G1 X86.660 Y101.158 E2.37009
G1 X86.709 Y101.289 E2.38005
G1 X86.755 Y101.499 E2.39524
G1 X86.749 Y101.806 E2.41699
G1 X86.714 Y102.027 E2.43284
G1 X86.665 Y102.136 E2.44126
G1 X86.454 Y102.339 E2.46200
G1 X86.170 Y102.544 E2.48682
G1 X85.874 Y102.654 E2.50916
G1 X85.238 Y103.048 E2.56216
G1 X84.655 Y103.450 E2.61227
G1 X84.544 Y103.504 E2.62102
G1 X84.429 Y103.410 E2.63148
G1 X84.036 Y103.384 E2.65936
G1 X83.796 Y103.625 E2.68345
G1 X83.783 Y103.680 E2.68741
G1 X83.618 Y103.715 E2.69930
G1 X83.366 Y104.242 E2.74063
G1 X83.290 Y104.604 E2.76681
G1 X83.305 Y105.315 E2.81717
G1 X83.253 Y105.744 E2.84776
G1 X83.242 Y106.087 E2.87206
G1 X83.305 Y106.331 E2.88992
G1 X83.518 Y106.748 E2.92308
G1 X83.763 Y107.135 E2.95548
G1 X84.561 Y108.080 E3.04305
G1 X85.075 Y108.570 E3.09331
G1 X85.394 Y108.806 E3.12145
G1 X85.875 Y109.092 E3.16104
G1 X86.187 Y109.201 E3.18442
G1 X86.654 Y109.320 E3.21853
G1 X87.414 Y109.315 E3.27238
G1 X87.919 Y109.236 E3.30853
G1 X88.045 Y109.241 E3.31746
G1 X88.815 Y109.383 E3.37292
G1 X89.335 Y109.514 E3.41085
G1 X89.906 Y109.700 E3.45337
G1 X90.397 Y109.935 E3.49191
G1 X91.129 Y110.236 E3.54798
G1 X92.189 Y110.840 E3.63430
G1 X92.833 Y111.288 E3.68985
G1 X93.149 Y111.546 E3.71872
G1 X93.741 Y112.134 E3.77778
G1 X94.033 Y112.609 E3.81729
G1 X94.252 Y112.923 E3.84437
G1 X94.423 Y113.303 E3.87388
G1 X94.593 Y113.578 E3.89678
G1 X94.869 Y113.724 E3.91889
G1 X95.423 Y113.832 E3.95885
G1 X95.665 Y113.371 E3.99570
G1 X95.731 Y113.277 E4.00386
G1 X96.209 Y112.951 E4.04482
G1 X96.418 Y112.863 E4.06088
G1 X96.691 Y112.792 E4.08081
G1 X97.177 Y112.609 E4.11758
G1 X97.539 Y112.325 E4.15014
G1 X97.775 Y111.841 E4.18827
G1 X97.846 Y111.565 E4.20848
G1 X97.870 Y111.269 E4.22947
G1 X97.861 Y108.031 E4.45869
G1 X97.967 Y105.822 E4.61528
G1 X98.071 Y105.443 E4.64309
G1 X98.297 Y105.023 E4.67688
G1 X98.426 Y104.840 E4.69269
G1 X98.717 Y104.163 E4.74488
G1 X98.950 Y102.723 E4.84814
G1 X99.134 Y102.098 E4.89427
G1 X99.440 Y101.401 E4.94818
G1 X99.797 Y100.844 E4.99500
G1 X99.842 Y100.801 E4.99942
G1 X100.000 Y100.723 E5.01187
G1 X100.158 Y100.801 E5.02431
G1 X100.203 Y100.844 E5.02876
G1 X100.560 Y101.401 E5.07555
G1 X100.866 Y102.098 E5.12945
G1 X101.050 Y102.723 E5.17559
G1 X101.283 Y104.163 E5.27886
G1 X101.574 Y104.840 E5.33105
G1 X101.703 Y105.023 E5.34686
G1 X101.929 Y105.443 E5.38064
G1 X102.033 Y105.822 E5.40846
G1 X102.139 Y108.031 E5.56505
G1 X102.130 Y111.269 E5.79426
G1 X102.154 Y111.565 E5.81526
G1 X102.225 Y111.841 E5.83546
G1 X102.461 Y112.325 E5.87359
G1 X102.823 Y112.609 E5.90615
G1 X103.309 Y112.792 E5.94293
G1 X103.582 Y112.863 E5.96286
G1 X103.791 Y112.951 E5.97891
G1 X104.269 Y113.277 E6.01987
G1 X104.336 Y113.371 E6.02804
G1 X104.577 Y113.832 E6.06488
G1 X105.131 Y113.724 E6.10484
G1 X105.407 Y113.578 E6.12695
G1 X105.577 Y113.303 E6.14986
G1 X105.748 Y112.923 E6.17936
G1 X105.967 Y112.609 E6.20645
G1 X106.259 Y112.134 E6.24596
G1 X106.851 Y111.546 E6.30503
G1 X107.167 Y111.288 E6.33388
G1 X107.811 Y110.840 E6.38943
G1 X108.871 Y110.236 E6.47575
G1 X109.603 Y109.935 E6.53182
G1 X110.094 Y109.700 E6.57036
G1 X110.665 Y109.514 E6.61288
G1 X111.185 Y109.383 E6.65081
G1 X111.955 Y109.241 E6.70627
G1 X112.081 Y109.236 E6.71521
G1 X112.586 Y109.315 E6.75136
G1 X113.346 Y109.320 E6.80520
G1 X113.813 Y109.201 E6.83931
G1 X114.125 Y109.092 E6.86269
G1 X114.606 Y108.806 E6.90228
G1 X114.925 Y108.570 E6.93042
G1 X115.439 Y108.080 E6.98068
G1 X116.237 Y107.135 E7.06825
G1 X116.482 Y106.748 E7.10066
G1 X116.695 Y106.331 E7.13381
G1 X116.758 Y106.087 E7.15167
G1 X116.747 Y105.744 E7.17598
G1 X116.695 Y105.315 E7.20657
G1 X116.710 Y104.604 E7.25692
G1 X116.634 Y104.241 E7.28313
G1 X116.381 Y103.714 E7.32453
G1 X116.218 Y103.679 E7.33635
G1 X116.204 Y103.626 E7.34022
G1 X115.964 Y103.384 E7.36434
G1 X115.570 Y103.410 E7.39230
G1 X115.456 Y103.503 E7.40272
G1 X115.345 Y103.450 E7.41142
G1 X114.762 Y103.048 E7.46153
G1 X114.126 Y102.654 E7.51454
G1 X113.830 Y102.544 E7.53688
G1 X113.546 Y102.339 E7.56169
G1 X113.335 Y102.136 E7.58243
G1 X113.286 Y102.027 E7.59086
G1 X113.251 Y101.806 E7.60671
G1 X113.245 Y101.499 E7.62846
G1 X113.340 Y101.158 E7.65354
G1 X113.572 Y100.878 E7.67923
G1 X113.899 Y100.726 E7.70472
G1 X114.116 Y100.692 E7.72029
G1 X114.407 Y100.672 E7.74094
G1 X114.486 Y100.683 E7.74658
G1 X114.683 Y100.817 E7.76346
G1 X114.796 Y100.921 E7.77434
G1 X114.947 Y101.202 E7.79691
G1 X114.970 Y101.308 E7.80456
G1 X115.243 Y101.820 E7.84567
G1 X115.477 Y102.024 E7.86763
G1 X115.633 Y102.221 E7.88539
G1 X115.823 Y102.306 E7.90013
G1 X116.321 Y102.428 E7.93640
G1 X116.628 Y102.266 E7.96098
G1 X116.684 Y102.075 E7.97511
G1 X116.885 Y101.729 E8.00343
G1 X116.850 Y101.479 E8.02129
G1 X116.846 Y101.147 E8.04484
G1 X116.615 Y100.664 E8.08270
G1 X116.422 Y100.368 E8.10776
G1 X116.102 Y100.057 E8.13931
G1 X115.816 Y99.846 E8.16446
G1 X115.751 Y99.683 E8.17690
G1 X115.622 Y99.448 E8.19590
G1 X115.573 Y99.216 E8.21271
G1 X115.659 Y98.890 E8.23658
G1 X115.818 Y98.623 E8.25858
G1 X116.017 Y98.415 E8.27892
G1 X116.325 Y98.266 E8.30312
G1 X116.766 Y98.299 E8.33445
G1 X117.243 Y98.505 E8.37126
G1 X117.347 Y98.602 E8.38133
G1 X117.479 Y98.880 E8.40312
G1 X117.547 Y99.238 E8.42890
G1 X117.606 Y99.956 E8.47993
G1 X117.601 Y100.573 E8.52362
G1 X117.918 Y100.821 E8.55204
G1 X117.942 Y100.810 E8.55387
G1 X118.198 Y100.887 E8.57280
G1 X118.878 Y100.942 E8.62107
G1 X119.259 Y100.774 E8.65056
G1 X119.441 Y100.567 E8.67010
G1 X119.764 Y100.041 E8.71382
G1 X119.887 Y99.712 E8.73866
G1 X120.099 Y98.886 E8.79904
G1 X120.268 Y97.985 E8.86391
G1 X120.386 Y97.108 E8.92659
G1 X120.402 Y96.782 E8.94964
G1 X120.326 Y96.459 E8.97318
G1 X120.366 Y96.000 E9.00578
G1 X120.452 Y95.677 E9.02944
G1 X120.734 Y95.407 E9.05709
G1 X121.027 Y95.236 E9.08114
G1 X121.376 Y95.136 E9.10678
G1 X121.766 Y95.172 E9.13453
G1 X121.865 Y95.207 E9.14195
G1 X122.250 Y95.494 E9.17593
G1 X122.514 Y95.833 E9.20637
G1 X122.628 Y96.059 E9.22431
G1 X122.572 Y96.517 E9.25696
G1 X122.398 Y96.998 E9.29318
G1 X122.001 Y97.618 E9.34529
G1 X121.111 Y99.392 E9.48578
G1 X121.194 Y100.517 E9.56565
G1 X121.348 Y100.988 E9.60075
G1 X121.346 Y101.111 E9.60943
G1 X121.406 Y101.453 E9.63404
G1 X121.730 Y101.520 E9.65747
G1 X121.896 Y101.468 E9.66981
G1 X122.274 Y101.256 E9.70052
G1 X122.521 Y101.205 E9.71838
G1 X123.612 Y100.697 E9.80358
G1 X124.619 Y100.137 E9.88513
G1 X125.482 Y99.714 E9.95312
G1 X126.268 Y99.294 E10.01623
G1 X127.366 Y98.584 E10.10883
G1 X127.723 Y98.305 E10.14089
G1 X129.030 Y97.124 E10.26555
G1 X129.486 Y96.831 E10.30394
G1 X129.836 Y96.654 E10.33171
G1 X130.063 Y96.599 E10.34830
G1 X130.518 Y96.576 E10.38051
G1 X130.807 Y96.604 E10.40110
G1 X131.036 Y96.687 E10.41832
G1 X131.489 Y96.901 E10.45382
G1 X131.748 Y97.070 E10.47570
G1 X132.004 Y97.399 E10.50521
G1 X132.068 Y97.563 E10.51770
G1 X132.120 Y97.969 E10.54666
G1 X132.119 Y98.156 E10.55993
G1 X132.035 Y98.555 E10.58879
G1 X131.968 Y98.722 E10.60151
G1 X131.707 Y99.126 E10.63555
G1 X131.572 Y99.282 E10.65019
G1 X131.233 Y99.589 E10.68257
G1 X131.080 Y99.697 E10.69584
G1 X130.596 Y99.925 E10.73369
G1 X130.073 Y100.051 E10.77178
G1 X129.323 Y100.095 E10.82493
G1 X128.385 Y100.253 E10.89229
G1 X127.672 Y100.439 E10.94444
G1 X126.633 Y100.795 E11.02223
G1 X126.229 Y100.986 E11.05380
G1 X125.876 Y101.218 E11.08374
G1 X125.327 Y101.529 E11.12842
G1 X124.817 Y101.895 E11.17283
G1 X124.588 Y102.170 E11.19820
G1 X124.526 Y102.343 E11.21120
G1 X124.581 Y102.825 E11.24551
G1 X124.576 Y102.991 E11.25728
G1 X124.670 Y103.347 E11.28338
G1 X124.756 Y103.526 E11.29739
G1 X124.984 Y103.854 E11.32567
G1 X125.360 Y104.257 E11.36470
G1 X125.640 Y104.462 E11.38926
G1 X126.726 Y104.660 E11.46740
G1 X127.309 Y104.728 E11.50901
G1 X127.546 Y104.801 E11.52657
G1 X127.892 Y104.937 E11.55284
G1 X128.007 Y105.025 E11.56312
G1 X128.260 Y105.289 E11.58899
G1 X128.318 Y105.382 E11.59679
G1 X128.424 Y105.696 E11.62022
G1 X128.468 Y106.046 E11.64520
G1 X128.384 Y106.509 E11.67852
G1 X128.135 Y106.926 E11.71293
G1 X128.073 Y106.985 E11.71896
G1 X127.821 Y107.144 E11.74004
G1 X127.693 Y107.189 E11.74968
G1 X127.463 Y107.227 E11.76613
G1 X127.378 Y107.222 E11.77220
G1 X127.018 Y107.145 E11.79828
G1 X126.878 Y107.083 E11.80910
G1 X126.347 Y106.742 E11.85374
G1 X124.781 Y105.462 E11.99696
G1 X124.476 Y105.282 E12.02206
G1 X123.785 Y104.952 E12.07624
G1 X123.046 Y104.760 E12.13026
G1 X122.734 Y104.757 E12.15237
G1 X122.130 Y104.871 E12.19586
G1 X121.205 Y105.148 E12.26428
G1 X120.719 Y105.380 E12.30238
G1 X118.474 Y106.964 E12.49688
G1 X118.007 Y107.437 E12.54391
G1 X117.812 Y107.684 E12.56623
G1 X116.773 Y109.474 E12.71273
G1 X116.216 Y110.489 E12.79470
G1 X115.416 Y111.795 E12.90312
G1 X115.189 Y112.147 E12.93277
G1 X114.961 Y112.445 E12.95932
G1 X114.567 Y113.123 E13.01485
G1 X114.469 Y113.259 E13.02670
G1 X113.978 Y113.780 E13.07739
G1 X113.817 Y114.007 E13.09710
G1 X113.746 Y114.132 E13.10728
G1 X113.642 Y114.438 E13.13014
G1 X113.485 Y114.706 E13.15217
G1 X112.659 Y115.774 E13.24773
G1 X111.890 Y116.886 E13.34343
G1 X110.995 Y117.957 E13.44224
G1 X110.274 Y118.928 E13.52788
G1 X109.907 Y119.365 E13.56824
G1 X109.105 Y120.180 E13.64918
G1 X108.919 Y120.341 E13.66666
G1 X108.681 Y120.502 E13.68694
G1 X108.496 Y120.696 E13.70593
G1 X107.435 Y122.209 E13.83674
G1 X107.072 Y122.657 E13.87760
G1 X106.781 Y123.119 E13.91622
G1 X106.703 Y123.179 E13.92319
G1 X106.304 Y123.354 E13.95407
G1 X105.642 Y123.707 E14.00718
G1 X105.313 Y123.644 E14.03085
G1 X105.036 Y123.500 E14.05301
G1 X104.844 Y123.328 E14.07122
G1 X104.802 Y123.263 E14.07669
G1 X104.782 Y123.130 E14.08623
G1 X104.845 Y122.654 E14.12021
G1 X104.961 Y122.319 E14.14529
G1 X105.294 Y121.668 E14.19707
G1 X105.762 Y120.606 E14.27925
G1 X106.096 Y119.335 E14.37228
G1 X106.088 Y119.281 E14.37610
G1 X106.143 Y119.028 E14.39447
G1 X105.998 Y118.496 E14.43348
G1 X105.822 Y118.585 E14.44745
G1 X105.659 Y118.300 E14.47069
G1 X105.261 Y118.788 E14.51523
G1 X104.373 Y119.443 E14.59335
G1 X103.844 Y119.976 E14.64656
G1 X103.374 Y120.519 E14.69735
